X: 082118
T: Handy Man (The)
C: Joe Liddy
Z: BB
S: "The Leitrim Fiddler" (Dublin 1981)
L: 1/8
M: 4/4
R: reel
Q: 1/4 = 180
K: G
dc | BDGB ADFA | GBGA FDDE | FGAB cdeg | fgaf d2 dc |
BDGB ADFA | GBGA FGAB | cdfe dcAF | G2 (3AGF G2 :|
Bc | dedB GBdB | cBAG FDEF | GBdB cdeg | fgaf d2 Bc |
dedB cecA | BdBG FGAB | dcfe dcAF | G2 (3AGF G2 ||
Bc | dedB GABd | cBAG FDDE | GBdB ceag | fgaf d2 ga |
bagf edcA | BcAG FDAB | cdfe dcAF |  G2 (3AGF G4 ||
